; generated by Slic3r 1.1.7 on 2014-12-28 at 12:05:31

; perimeters extrusion width = 0.40mm
; infill extrusion width = 0.67mm
; solid infill extrusion width = 0.67mm
; top infill extrusion width = 0.67mm

G21 ; set units to millimeters
M107
M104 S200 ; set temperature
G28 ; home all axes
G1 Z5 F5000 ; lift nozzle

M109 S200 ; wait for temperature to be reached
G90 ; use absolute coordinates
G92 E0
M82 ; use absolute distances for extrusion
G1 F1800.000 E-1.00000
G92 E0
G1 Z0.350 F7800.000
G1 X68.905 Y69.749 F7800.000
G1 E1.00000 F1800.000
G1 X70.658 Y68.267 E1.07224 F600.000
G1 X72.811 Y67.472 E1.14448
G1 X74.000 Y67.364 E1.18205
G1 X76.000 Y67.364 E1.24500
G1 X78.261 Y67.761 E1.31724
G1 X80.251 Y68.905 E1.38948 F600.000
G1 X81.733 Y70.658 E1.46172
G1 X82.528 Y72.811 E1.53396
G1 X82.636 Y74.000 E1.57153
G1 X82.636 Y76.000 E1.63448
G1 X82.239 Y78.261 E1.70672
G1 X81.095 Y80.251 E1.77896
G1 X79.342 Y81.733 E1.85120
G1 X77.189 Y82.528 E1.92344
G1 X76.000 Y82.636 E1.96101
G1 X74.000 Y82.636 E2.02396
G1 X71.739 Y82.239 E2.09620
G1 X69.749 Y81.095 E2.16844
G1 X68.267 Y79.342 E2.24068
G1 X67.472 Y77.189 E2.31292
G1 X67.364 Y76.000 E2.35049
G1 X67.364 Y74.000 E2.41344
G1 X67.761 Y71.739 E2.48568
G1 X68.875 Y69.801 E2.55603
G1 F1800.000 E1.55603
G92 E0
G1 X75.650 Y75.650 F7800.000
G1 E1.00000 F1800.000
G1 X74.350 Y75.650 E1.04091 F600.000
G1 X74.350 Y74.350 E1.08183
G1 X75.650 Y74.350 E1.12274
G1 X75.650 Y75.590 E1.16177
G1 X75.304 Y75.450 F7800.000
G1 X75.209 Y74.831 F7800.000
G1 X75.169 Y74.791 E1.16355 F600.000
M106 S255
G1 F1800.000 E0.16355
G92 E0
G1 Z0.550 F7800.000
G1 X75.400 Y75.400 F7800.000
G1 E1.00000 F1800.000
G1 X74.600 Y75.400 E1.00905 F600.000
G1 X74.600 Y74.600 E1.01811
G1 X75.400 Y74.600 E1.02716
G1 X75.400 Y75.340 E1.03554
G1 X75.800 Y75.800 F7800.000
G1 X74.200 Y75.800 E1.05365 F600.000
G1 X74.200 Y74.200 E1.07175
G1 X75.800 Y74.200 E1.08986
G1 X75.800 Y75.740 E1.10729
G1 X75.454 Y75.600 F7800.000
G1 F1800.000 E0.10729
G92 E0
G1 Z0.750 F7800.000
G1 X75.400 Y75.400 F7800.000
G1 E1.00000 F1800.000
G1 X74.600 Y75.400 E1.00905 F600.000
G1 X74.600 Y74.600 E1.01811
G1 X75.400 Y74.600 E1.02716
G1 X75.400 Y75.340 E1.03554
G1 X75.800 Y75.800 F7800.000
G1 X74.200 Y75.800 E1.05365 F600.000
G1 X74.200 Y74.200 E1.07175
G1 X75.800 Y74.200 E1.08986
G1 X75.800 Y75.740 E1.10729
G1 X75.454 Y75.600 F7800.000
G1 F1800.000 E0.10729
G92 E0
M107
M104 S0 ; turn off temperature
G28 X0  ; home X axis
M84     ; disable motors

; filament used = 2.6mm (0.0cm3)

; avoid_crossing_perimeters = 0
; bed_size = 159,150
; bed_temperature = 0
; bridge_acceleration = 0
; bridge_fan_speed = 100
; bridge_flow_ratio = 1
; brim_width = 0
; complete_objects = 0
; cooling = 1
; default_acceleration = 0
; disable_fan_first_layers = 1
; duplicate_distance = 6
; end_gcode = M104 S0 ; turn off temperature\nG28 X0  ; home X axis\nM84     ; disable motors\n
; external_perimeters_first = 0
; extruder_clearance_height = 20
; extruder_clearance_radius = 20
; extruder_offset = 0x0
; extrusion_axis = E
; extrusion_multiplier = 1
; fan_always_on = 0
; fan_below_layer_time = 60
; filament_diameter = 3
; first_layer_acceleration = 0
; first_layer_bed_temperature = 0
; first_layer_extrusion_width = 200%
; first_layer_speed = 30%
; first_layer_temperature = 200
; g0 = 0
; gcode_arcs = 0
; gcode_comments = 0
; gcode_flavor = reprap
; infill_acceleration = 0
; infill_first = 0
; layer_gcode = 
; max_fan_speed = 100
; min_fan_speed = 35
; min_print_speed = 10
; min_skirt_length = 0
; notes = 
; nozzle_diameter = 0.4
; only_retract_when_crossing_perimeters = 1
; ooze_prevention = 0
; output_filename_format = [input_filename_base].gcode
; perimeter_acceleration = 0
; post_process = 
; print_center = 75,75
; resolution = 0
; retract_before_travel = 2
; retract_layer_change = 1
; retract_length = 1
; retract_length_toolchange = 10
; retract_lift = 0
; retract_restart_extra = 0
; retract_restart_extra_toolchange = 0
; retract_speed = 30
; skirt_distance = 6
; skirt_height = 1
; skirts = 1
; slowdown_below_layer_time = 30
; spiral_vase = 0
; standby_temperature_delta = -5
; start_gcode = G28 ; home all axes\nG1 Z5 F5000 ; lift nozzle\n
; temperature = 200
; threads = 2
; toolchange_gcode = 
; travel_speed = 130
; use_firmware_retraction = 0
; use_relative_e_distances = 0
; vibration_limit = 0
; wipe = 0
; z_offset = 0
; dont_support_bridges = 1
; extrusion_width = 0
; first_layer_height = 0.35
; infill_only_where_needed = 0
; interface_shells = 0
; layer_height = 0.2
; raft_layers = 0
; seam_position = aligned
; support_material = 0
; support_material_angle = 0
; support_material_enforce_layers = 0
; support_material_extruder = 1
; support_material_extrusion_width = 0
; support_material_interface_extruder = 1
; support_material_interface_layers = 3
; support_material_interface_spacing = 0
; support_material_interface_speed = 100%
; support_material_pattern = pillars
; support_material_spacing = 2.5
; support_material_speed = 60
; support_material_threshold = 0
; bottom_solid_layers = 3
; bridge_speed = 60
; external_perimeter_speed = 70%
; extra_perimeters = 1
; fill_angle = 45
; fill_density = 10%
; fill_pattern = honeycomb
; gap_fill_speed = 20
; infill_every_layers = 1
; infill_extruder = 1
; infill_extrusion_width = 0
; infill_speed = 60
; overhangs = 1
; perimeter_extruder = 1
; perimeter_extrusion_width = 0
; perimeter_speed = 30
; perimeters = 3
; small_perimeter_speed = 30
; solid_fill_pattern = rectilinear
; solid_infill_below_area = 70
; solid_infill_every_layers = 0
; solid_infill_extrusion_width = 0
; solid_infill_speed = 60
; thin_walls = 1
; top_infill_extrusion_width = 0
; top_solid_infill_speed = 50
; top_solid_layers = 3
